X:0574
T:Sweet Richard
C:A Welch Tune
M:C|
L:1/8
Q:1/2=104
I: :: ||
Z:Jack Campin * www.campin.me.uk * 2009
K:G
D|DG GF/E/  FGA2|G2BG  ABc2 |B>c dB cBAG|EAGF    G2G:|
d|g2 gg     f2ff|efge (e2d2)|g2  bg f2af|efge {e}d4  |
  ec e2     dBd2|cBAG  Bcd2 |B2  dB cBAG|EAGF    G2G|]
<end>
<start>
